X: 54
M:6/8
L:1/8
K:C
|:A| ^G>^FG A>GA| B>AB c2 c|d>ec B2 A| ^G>^FG A2 A| ^G>^FG  A>GA|B/2A/2 c2 c| d>ec B2 A| ^G>^F A3:|

